X:1
T:Var, 77.77
T:Var, 77.77
T:Arranged from Franz Schubert, Opus 140
T:Public Domain Courtesy of the Cyber Hymnal™
C:Arranged from Franz Schubert, Opus 140
Z:Public Domain
Z:Courtesy of the Cyber Hymnal™
%%score ( 1 2 ) ( 3 4 )
L:1/8
Q:1/4=106
M:4/8
K:Bb
V:1 treble 
V:2 treble 
V:3 bass 
V:4 bass 
V:1
 d2 d2 | B2 B2 | A2 A2 | e4 | d3 d | d G3 | (c2 =B)c | z x6 | d3 d | B2 B2 | A2 A2 | e4 | d3 d | %13
 G2 (GB) | c3 F | B4 |] %16
V:2
 x4 | x4 | x4 | x4 | x4 | x4 | x4 | F4 (CDE) | x4 | x4 | x4 | x4 | x4 | x4 | x4 | x4 |] %16
V:3
 (B,,D) ([F,B,]D) | (D,F) ([F,B,]F) | (C,E) ([F,A,]E) | (F,,C[F,A,]C) | (B,,D[F,B,])D | %5
 E,, (C[E,G,B,]C) | =E,, (C[=E,G,B,])C | F,, (A,B,C) x3 | (B,,D[F,B,])D | (D,F) ([F,B,]E) | %10
 (C,E) ([F,A,]E) | (F,,C[F,A,]C) | (B,,D[F,B,])D | (=E,,_D) ([=E,G,B,]D) | C3 A, | (DD, B,,2) |] %16
V:4
 x4 | x4 | x4 | x4 | x4 | x4 | x4 | x F,3 x3 | x4 | x4 | x4 | x4 | x4 | x4 | (F,2 A,/G,/) x | x4 |] %16

